!!!OTL: WOHER DIE FLOCKEN UEBERALL
!!!ARE: Europa, Mitteleuropa, Deutschland
!!!SCT: B0636
!!!YEM: Copyright 1995, estate of Helmut Schaffrath.
**kern
*ICvox
*Ivox
*M4/4
*k[b-e-]
*B-:
{4f
=1
4b-
4b-
4cc
4cc
=2
4dd
4cc
4b-}
{4cc
=3
4dd
4dd
4ee-
4dd
=4
2cc
4r}
{4ff
=5
4ff
4dd
4dd
4b-
=6
4b-
4g
4g}
{4b-
=7
4a
4b-
4cc
4dd
=8
2b-
4r}
==
!!!AGN: Kinder -, Jahreszeiten - Lied, Winter
!!!ONB: ESAC (Essen Associative Code) Database: BOEHME
!!!AMT: simple quadruple
!!!AIN: vox
!!!EED: Helmut Schaffrath
!!!EEV: 1.0
*-
